src/landing/containers/MainScreen/components/Advantages/assets/send.svg

<svg width="120" height="120" viewBox="0 0 120 120" fill="none" xmlns="http://www.w3.org/2000/svg">
    <path fill-rule="evenodd" clip-rule="evenodd" d="M77.2346 24.1523C77.982 23.8427 78.8422 24.0138 79.4142 24.5858L99.2134 44.3851C99.9945 45.1661 99.9945 46.4324 99.2134 47.2135L79.4144 67.0125C78.8424 67.5845 77.9822 67.7556 77.2349 67.446C76.4875 67.1365 76.0002 66.4072 76.0002 65.5983L76 56.0285C65.4397 56.3332 58.5787 59.0619 54.3296 62.8434C49.8465 66.8331 48 72.2365 48 78.0001C48 79.1046 47.1046 80.0001 46 80.0001C44.8954 80.0001 44 79.1046 44 78.0001C44 63.7598 47.0451 53.2142 52.9733 46.2082C58.5667 39.5977 66.4809 36.4232 76.0002 36.0398L76 26.0001C76 25.1912 76.4873 24.4619 77.2346 24.1523Z" fill="url(#paint0_linear)"/>
    <path fill-rule="evenodd" clip-rule="evenodd" d="M38 32C34.6845 32 32 34.6825 32 37.9944V82.0125C32 85.3221 34.6822 88 38 88H82C85.3137 88 88 85.3137 88 82V76C88 74.8954 88.8954 74 90 74C91.1046 74 92 74.8954 92 76V82C92 87.5228 87.5228 92 82 92H38C32.4812 92 28 87.5394 28 82.0125V37.9944C28 32.4697 32.479 28 38 28H44C45.1046 28 46 28.8954 46 30C46 31.1046 45.1046 32 44 32H38Z" fill="url(#paint1_linear)"/>
    <defs>
        <linearGradient id="paint0_linear" x1="99.7992" y1="24" x2="99.7992" y2="80.0001" gradientUnits="userSpaceOnUse">
            <stop stop-color="#4070FF"/>
            <stop offset="1" stop-color="#365FD9"/>
        </linearGradient>
        <linearGradient id="paint1_linear" x1="28" y1="92" x2="28" y2="28" gradientUnits="userSpaceOnUse">
            <stop stop-color="#FFA526"/>
            <stop offset="1" stop-color="#FF860D"/>
        </linearGradient>
    </defs>
</svg>

<svg width="120" height="120" fill="none" xmlns="http://www.w3.org/2000/svg"><path fill-rule="evenodd" clip-rule="evenodd" d="M77.235 24.152a2 2 0 012.18.434l19.798 19.8a2 2 0 010 2.828L79.414 67.013A2 2 0 0176 65.597v-9.57c-10.56.305-17.421 3.034-21.67 6.815C49.847 66.833 48 72.237 48 78a2 2 0 01-4 0c0-14.24 3.045-24.786 8.973-31.792C58.567 39.598 66.481 36.423 76 36.04V26a2 2 0 011.235-1.848z" fill="url(#paint0_linear)"/><path fill-rule="evenodd" clip-rule="evenodd" d="M38 32c-3.316 0-6 2.682-6 5.994v44.019A5.99 5.99 0 0038 88h44a6 6 0 006-6v-6a2 2 0 114 0v6c0 5.523-4.477 10-10 10H38c-5.519 0-10-4.46-10-9.987V37.994C28 32.47 32.479 28 38 28h6a2 2 0 110 4h-6z" fill="url(#paint1_linear)"/><defs><linearGradient id="paint0_linear" x1="99.799" y1="24" x2="99.799" y2="80" gradientUnits="userSpaceOnUse"><stop stop-color="#4070FF"/><stop offset="1" stop-color="#365FD9"/></linearGradient><linearGradient id="paint1_linear" x1="28" y1="92" x2="28" y2="28" gradientUnits="userSpaceOnUse"><stop stop-color="#FFA526"/><stop offset="1" stop-color="#FF860D"/></linearGradient></defs></svg>
